X: 100391
P: THE CHORUS LANCERS QUADRILLES -- Part 5.
U: Q=!diminuendo(!
U: q=!diminuendo)!
M: 6/8
L: 1/8
K: D
v[d2F2A,2]z v[d2F2A,2]z | v[d2F2A,2]z z2 !segno!|: uA |\
.dz.e .fz.b | Q(a3 qf) zuA | .dz.e .fz.b | Q(a3 qf) zuA |\
(.g2.g) {a/}gfg | g3 ega | (.b2.b) {c'/}b^ab | b2(a/g/) fz uf |
.e(gf) .e(gf) | e2!ff!a/a/ az uf | .e(gf) .e(gf) | e3 ABc |\
d>dd dfe | e>dd dfd | a2f/d/ a2e/f/ | d3- d2 :|
K: G
|: ud |\
(.g2.f) (g2b) | d'3- d'2b | (d'2b) (d'2b) | (d'^c'=c') a3 |\
(.a2.a) {b/}aga | (b2d') g3 | aba (d2d') | g3- g2z |
ve'3 e'3 | d'3 d'3 | (._b3.b) bag | d'3 (d'^c'=c') |\
(.a2.a) {b/}aga | (b2d') g3 | aba (d2d') | vg2z v[g2B2D2G,2] "^D.C."|]


